X:1
T:[ID 7-100]
T:[ID 7-100]
T:Bezeichnung standardisiert: Anglaise Angeloise
T:Urheber unbekannt Datum in der hier transkribierten schriftlichen Quelle: 1776 - 1791
C:Urheber unbekannt
C:Datum in der hier transkribierten schriftlichen Quelle: 1776 - 1791
L:1/8
M:2/4
K:G
V:1 treble 
V:1
 d/c/ | BGBd | g3 a | ba/g/ fg | a/g/f/e/ dd/c/ | BGBd | g3 a | ba/g/ fg | a2 :: a | %10
 a/f/a/f/ a/f/a/f/ | bggg | b/g/b/g/ b/g/b/g/ | c'a a2 | bgfg | a/g/f/e/dc | BAGF | G3 :: g | %19
 [Bd][Bd][ce][Bd] | [Ac]2 [GB]2 | BABc | d/c/d/e/ dg | [Bd][Bd][ce][Bd] | [Ac]2 [GB][Ac] | ddef | %26
 g3 :| %27

